raw-svg/thumbtack.svg

<svg fill="none" height="24" viewBox="0 0 24 24" width="24" xmlns="http://www.w3.org/2000/svg"><path clip-rule="evenodd" d="m6.25 4c0-.41421.33579-.75.75-.75h10c.4142 0 .75.33579.75.75s-.3358.75-.75.75h-.25v5.25c0 .0525.019.1231.1016.214.0872.0959.2257.1893.3932.2523 1.3439.5056 1.9478 1.7524 2.2226 2.6922.1423.4863.2122.9406.2469 1.2711.0175.1664.0264.3041.031.4023.0022.0492.0034.0887.004.1171l.0006.0342.0001.0107v.0036.0014c0 .0003 0 .0011-.75.0011h.75c0 .4142-.3358.75-.75.75h-6.25v4.25c0 .4142-.3358.75-.75.75s-.75-.3358-.75-.75v-4.25h-6.25c-.41421 0-.75-.3358-.75-.75h.75c-.75 0-.75.0003-.75 0v-.0011-.0014l.00002-.0036.00008-.0107.00057-.0342c.00062-.0284.0018-.0679.00407-.1171.00453-.0982.01343-.2359.03093-.4023.03477-.3305.10464-.7848.24689-1.2711.27487-.9398.87871-2.1866 2.22261-2.6922.16749-.063.30603-.1564.39322-.2523.08259-.0909.10161-.1615.10161-.214v-5.25h-.25c-.41421 0-.75-.33579-.75-.75zm2.5.75v5.25c0 1.0095-.82166 1.6276-1.4667 1.8703-.67534.254-1.08111.9231-1.31105 1.7092-.06897.2358-.11684.4656-.14994.6705h12.35539c-.0331-.2049-.081-.4347-.1499-.6705-.23-.7861-.6358-1.4552-1.3111-1.7092-.645-.2427-1.4667-.8608-1.4667-1.8703v-5.25z" fill="#000" fill-rule="evenodd"/></svg>

<svg width="24" height="24" viewBox="0 0 24 24" fill="none" xmlns="http://www.w3.org/2000/svg">
<path fill-rule="evenodd" clip-rule="evenodd" d="M6.25 4C6.25 3.58579 6.58579 3.25 7 3.25H17C17.4142 3.25 17.75 3.58579 17.75 4C17.75 4.41421 17.4142 4.75 17 4.75H16.75V10C16.75 10.0525 16.769 10.1231 16.8516 10.214C16.9388 10.3099 17.0773 10.4033 17.2448 10.4663C18.5887 10.9719 19.1926 12.2187 19.4674 13.1585C19.6097 13.6448 19.6796 14.0991 19.7143 14.4296C19.7318 14.596 19.7407 14.7337 19.7453 14.8319C19.7475 14.8811 19.7487 14.9206 19.7493 14.949L19.7499 14.9832L19.75 14.9939L19.75 14.9975L19.75 14.9989C19.75 14.9992 19.75 15 19 15H19.75C19.75 15.4142 19.4142 15.75 19 15.75H12.75V20C12.75 20.4142 12.4142 20.75 12 20.75C11.5858 20.75 11.25 20.4142 11.25 20V15.75H5C4.58579 15.75 4.25 15.4142 4.25 15H5C4.25 15 4.25 15.0003 4.25 15L4.25 14.9989L4.25 14.9975L4.25002 14.9939L4.2501 14.9832L4.25067 14.949C4.25129 14.9206 4.25247 14.8811 4.25474 14.8319C4.25927 14.7337 4.26817 14.596 4.28567 14.4296C4.32044 14.0991 4.39031 13.6448 4.53256 13.1585C4.80743 12.2187 5.41127 10.9719 6.75517 10.4663C6.92266 10.4033 7.0612 10.3099 7.14839 10.214C7.23098 10.1231 7.25 10.0525 7.25 10V4.75H7C6.58579 4.75 6.25 4.41421 6.25 4ZM8.75 4.75V10C8.75 11.0095 7.92834 11.6276 7.2833 11.8703C6.60796 12.1243 6.20219 12.7934 5.97225 13.5795C5.90328 13.8153 5.85541 14.0451 5.82231 14.25H18.1777C18.1446 14.0451 18.0967 13.8153 18.0278 13.5795C17.7978 12.7934 17.392 12.1243 16.7167 11.8703C16.0717 11.6276 15.25 11.0095 15.25 10V4.75H8.75Z" fill="black"/>
</svg>
